X:1
T:Aus Tiefer Not
T:Sixtus Dietrich
T:Source : DDT 34---Leipzich---Breitkopf & Härtel---J.Wolf---1908. First print : Newe Deudsche Geistliche Gesenge---Wittemberg---G.Rhau---1544. Editor : André Vierendeels (31/07/17).
T:Notes : Original clefs : C1, C4, C4, F4 Original note values have been halved Editrorial accidentals above the staff
T:Aus Tiefer Not
T:©
T:©
T:©
C:Sixtus Dietrich
Z:©
%%score [ 1 [ 2 3 ] 4 ]
L:1/8
Q:1/4=122
M:2/2
K:F
V:1 treble nm="Alto" snm="A"
V:2 treble-8 nm="Tenor 1" snm="T 1"
V:3 treble-8 nm="Tenor 2" snm="T 2"
V:4 bass nm="Bass" snm="B"
V:1
 A8 | G4 F4 | E4 G4 | A4 G4 | F8 | z4 G4 | F4 G4 | B4 A4- | A8 | G6 FE | D8 | C8 | z4 F4 | G4 F4 | %14
w: Aus|tie- fer|Not schrei|ich zu|dir,|Herr|Gott, er-|hör mein|_|Ru- * *||fen.|Dein|gnä- dig|
 E4 D4 | F4 D4 | C8 | z4 D4 | F4 G4 | A4 B4 | G4 F4 | D4 E4 | F8 | z4 D4 | D4 D4 | F4 A4 | B4 A4 | %27
w: Oh- ren|kehr zu|mir|und|mei- ner|Bitt sie|öf- *||fen.|denn|so du|wilt das|se- hen|
 F8 | z4 c4 | c4 c4 | B8 | A8 | F4 F4 | A8 | G8 | E8 | F8 | D8 | C4 G4 | A4 B4 | G4 F4 | E8 | F8 |] %43
w: an,|was|Sünd und|Un-|recht|ist ge-|tan,|_|wer|kann,|Herr,|für dir|blei- *|||ben?|
V:2
 c8 | G4 B4 | c4 d4 | f4 c4 | d8 | z4 d4 | d4 B4 | d8 | c8- | c4 B4- | B8 | A8 | z4 c4 | G4 B4 | %14
w: Aus|tie- fer|Not schrei|ich zu|dir,|Herr|Gott, er-|hör|mein|_ Ru-||fen|Dein|gnä- dig|
 c4 B4 | A4 D4 | E8 | z4 G4 | F4 c4 | A4 d4 | c4 A4 | d4 c4 | A8 | z4 B4 | B4 G4 | F4 f4 | B4 c4 | %27
w: Oh- ren|kehr zu|mir|und|mei- ner|Bitt sie|öf- *||fen,|denn|so du|wilt das|se- hen|
 d8 | z4 G4 | c4 c4 | d4 e4 | f8 | d4 c4 | c4 A4 | B8 | G8 | F4 z4 | G8 | E8 | F4 D4 | C4 z4 | c8 | %42
w: an,|was|Sünd und|Un- recht|ist|ge- tan,|wer kann,|Herr,|für|dir,|wer|kann,|Herr, für|dir|blei-|
 c8 |] %43
w: ben?|
V:3
 F8 | E4 F4 | G4 G4 | F4 G4 | A8 | z4 B4 | A4 G4 | F8 | E4 F4 | G8 | F8 | z8 | F8 | E4 F4 | G4 G4 | %15
w: Aus|tie- fer|Not schrei|ich zu|dir,|Herr|Gott, er-|hör|mein Ru-||fen||Dein|gnä- dir|Oh- ren|
 F4 G4 | A8 | z4 B4 | A4 G4 | F8 | E4 F4 | G8 | F8 | z4 F4 | G4 B4 | A4 F4 | G4 F4 | D8 | z4 E4 | %29
w: kehr zu|mir|und|mei- ner|Bitt|sie öf-||fen,|denn|so du|wilt das|se- hen|an,|was|
 C4 C4 | G8 | A8 | B4 A4 | F8 | z8 | c8 | A8 | B8 | G8 | F8 | E4 F4 | G8 | F8 |] %43
w: Sünd und|Un-|recht|ist ge|tan,||wer|kann,|Herr,|fûr|dir|blei- *||ben?|
V:4
 F,,8 | C,4 D,4 | C,4 G,,4 | D,4 _E,4 | D,8 | z4 G,4 |"^b" D,4 E,4 | B,,4 D,4 | A,,4 z4 | %9
w: Aus|tie- fer|Not schrei|ich zu|dir,|Herr|Gott, er-|hör mein|_|
 C,4 G,,4 | B,,8 | F,,8 | z4 F,4 | C,4 D,4 | C,4 G,,4 | D,4 B,,4 | A,,8 | z4 G,,4 | D,4 E,4 | %19
w: Ru- *||fen|Dein|gnä- dig|oh- ren|kehr zu|mir|und|mei- ner|
 F,4 B,,4 | C,4 D,4 | B,,4 C,4 | F,,8 | z4 B,,4 | G,,4 G,,4 | D,4 D,4 | G,,4 A,,4 | B,,8 | z4 C,4 | %29
w: Bitt sie|öf- *||fen,|denn|so du|wilt das|se- hen|an,|was|
 F,,4 A,,4 | G,,8 | F,,8 | B,,4 F,,4 | F,,8 | G,,8 | C,8 | D,8 | G,,8 | C,8 | F,,4 B,,4 | C,4 D,4 | %41
w: Sünd und|Un-|recht|isr ge-|tan,|wer|kann,|Herr,|für|dir|blei- *||
 C,8 | F,,8 |] %43
w: |ben?|

